X: 36592
T: Shalom
R: barndance
M: 4/4
K: Bminor
|:F2 dc B4|^AB cB ^AG F2|^A2 ^A2 B^A Bd|c4 f4|
F2 dc B4|^AB cB ^AG F2|E2 G2 F2 G/F/G/E/|F4 F4:|
|:de f2 f2 f2|ed cd eg fe|dc Bc df ed|c4 c4|
c2 e2 e2 e2|eg fe dc BF|1 dc B2 cB ^A2|B4 B4:|2 d2 cB c2 B^A|B4 B4||

